Papirus/24x24/apps/microsoft-365.svg

<!-- Created with Inkscape (http://www.inkscape.org/) -->
<svg width="24" height="24" version="1.1" viewBox="0 0 24 24" xmlns="http://www.w3.org/2000/svg">
 <path d="m12.059902 2.5000743c-0.62517-0.010905-1.250592 0.1436355-1.814041 0.461652l-0.0072 0.00362c-0.03402 0.019095-0.0684 0.04-0.10188 0.060362l-5.3999505 3.2989907c-1.0779754 0.658595-1.7366068 1.8379866-1.7366068 3.1106668v6.1256632c0 1.272262 0.6591714 2.451962 1.7366968 3.110775l0.1511981 0.09236c-9e-3 -0.0054-0.0189-9e-3 -0.02808-0.01454l1.6769368 1.02272 3.5999676 2.201692c1.14596 0.700667 2.58053 0.700667 3.726542 0l5.399952-3.302538c1.043325-0.637922 1.692975-1.764223 1.733187-2.990031 0.0013-0.04018 0.0036-0.08036 0.0036-0.120726v-6.1256639c0-1.272663-0.658649-2.4520898-1.736696-3.1107583l-5.399952-3.2989924c-0.555006-0.3390889-1.17834-0.5150511-1.803512-0.5255606zm-2.1198941 0.6569598c-0.05796 0.040724-0.113759 0.084-0.168659 0.1278163 0.05508-0.044 0.110699-0.086914 0.168659-0.1278163zm2.0601341 5.7066274c0.645224 0 1.290499 0.1756354 1.863271 0.5255605l1.736697 1.061791v1.811059c0 1.272263-0.659189 2.451962-1.736697 3.110776l-1.863271 1.139899-1.86327-1.136353c-1.0775065-0.658814-1.7366958-1.838513-1.7366958-3.110777v-1.814604l1.7366958-1.0617911c0.572755-0.3499251 1.218049-0.5255604 1.86327-0.5255604z" style="opacity:.2"/>
 <path d="m10.237919 2.4655048-0.101161 0.06182c-0.1609211 0.0983653-0.3123564 0.2081496-0.4537477 0.3282068l0.2916566-0.2072046h2.4753111l0.450004 3.4418767-2.250003 2.2727779-2.2500203 1.5797442v1.8216222c0 1.272301 0.6583199 2.45209 1.7358453 3.110924l2.368678 1.44825-5.0045135 2.94883h-0.9652046l-1.7989363-1.09997c-1.0775437-0.658833-1.7358276-1.838624-1.7358276-3.110924v-6.1255002c0-1.2727192 0.6587159-2.4528181 1.7367996-3.1115237l5.4000124-3.2993826c0.03348-0.020364 0.06714-0.040365 0.101161-0.059456z" style="fill:#1e73c7"/>
 <path d="m11.682349 15.82041-3.6957044 2.063832c-1.104669 0.675415-2.1267082 0.914828-3.250817 0.28814l1.7989363 1.09997h0.6464844l5.3226577-2.948598z" style="opacity:.2"/>
 <path d="m15.600042 9.7265938v2.0365362c0 1.272301-0.658302 2.45209-1.735828 3.110924l-5.4000307 3.301691c-1.1046701 0.675415-2.4791264 0.699779-3.6032365 0.07309l5.2748392 3.225181c1.145981 0.700688 2.582375 0.700688 3.72841 0l5.400013-3.301728c1.077526-0.658832 1.735791-1.838623 1.735791-3.110922v-1.471126l-0.450004-0.681815z" style="fill:#8762b5"/>
 <path d="m19.263255 5.8238704-5.400031-3.2994007c-1.110016-0.6782151-2.492285-0.6992337-3.619203-0.0630923l-0.107281 0.0656379c-1.0780834 0.6587055-1.7367813 1.8387863-1.7367813 3.1115056v4.3109506l1.7367813-1.0612055c1.145513-0.6998701 2.580918-0.6998701 3.726484 0l5.400031 3.299382c1.044351 0.638142 1.6952 1.76553 1.734838 2.992413 0.0013-0.03964 0.0018-0.07927 0.0018-0.119093v-6.1255192c0-1.2727011-0.658716-2.4528182-1.736782-3.1115056z" style="fill:#4aafe8"/>
 <path d="m15.599609 9.9487537v0.5000003l3.664063 2.238281c0.969526 0.59242 1.599787 1.606609 1.716797 2.730469 0.0084-0.08626 0.01334-0.172384 0.01563-0.259766-0.04655-1.218477-0.694221-2.336319-1.732422-2.970703z" style="opacity:.1"/>
 <path d="m12.058594 1.9995352c-0.62517-0.010905-1.249052 0.1448747-1.8125 0.4628906l-0.0078 0.00195c-0.03402 0.019095-0.06808 0.040185-0.101563 0.060547l-5.4004029 3.2988312c-1.0779732 0.6585936-1.7363281 1.8386505-1.7363281 3.1113281v0.5c0-1.2726776 0.6583549-2.4527345 1.7363281-3.1113281l5.4003909-3.2988282c0.03348-0.020362 0.06754-0.041452 0.101562-0.060547l0.0078-0.00195c0.563451-0.3180188 1.189288-0.4737986 1.814456-0.4628936 0.62517 0.01051 1.24773 0.1863026 1.802734 0.5253906l5.400401 3.2988282c1.078044 0.6586666 1.736328 1.8386675 1.736328 3.1113281v-0.5c0-1.2726606-0.658283-2.452661-1.736328-3.1113281l-5.400391-3.2988282c-0.555004-0.3390881-1.177564-0.5148811-1.802734-0.5253906zm-3.6582034 9.7656248v0.5c0 1.272262 0.6588237 2.452516 1.7363284 3.111328l1.453125 0.886719 0.408203-0.25-1.861328-1.136719c-1.0775047-0.658812-1.7363284-1.839066-1.7363284-3.111328z" style="fill:#ffffff;opacity:.2"/>
</svg>

<svg xmlns="http://www.w3.org/2000/svg" width="24" height="24" version="1.1">
 <path style="opacity:0.2" d="M 12.061,2.5005 C 11.435,2.49 10.808,2.6453 10.244,2.9634 L 4.7344,6.3247 C 3.6594,6.9847 3,8.166 3,9.436 V 15.561 C 3,16.836 3.6594,18.016 4.7344,18.676 L 10.137,21.975 C 11.283,22.675 12.717,22.675 13.863,21.975 L 19.264,18.674 C 20.312,18.032 20.962,16.896 20.996,15.662 L 21,15.562 V 9.436 C 21,8.163 20.342,6.9832 19.264,6.3247 L 13.863,3.0259 C 13.308,2.6868 12.686,2.511 12.061,2.5005 Z M 12,9.5005 C 13.634,9.5005 15,10.5 15,10.5 L 15.5,10.814 V 12.293 C 15.5,13.566 14.946,14.724 13.863,15.375 L 12.047,16.469 10.635,15.375 C 9.5598,14.715 9,13.595 9,12.32 V 10.5 C 9,10.5 10.423,9.5005 12,9.5005 Z"/>
 <path style="fill:#1e73c7" d="M 10.135,2.5302 12.5,2.5003 V 6.0001 L 10.5,8.5001 9,10 V 11.82 C 9,13.095 9.56,14.215 10.635,14.875 L 12.505,16.325 7.5,19.275 H 6.535 L 4.735,18.175 C 3.66,17.515 3,16.335 3,15.06 V 8.9351 C 3,7.6651 3.66,6.4851 4.735,5.8251 Z"/>
 <path style="fill:#8762b5" d="M 15.5,9.5001 V 11.793 C 15.5,13.066 14.947,14.224 13.864,14.875 L 9.5,17.5 C 8.3045,18.22 5.985,18.876 4.8609,18.25 L 10.136,21.475 C 11.282,22.175 12.718,22.175 13.864,21.475 L 19.264,18.173 C 20.341,17.514 21,16.334 21,15.062 V 13.5 L 20.5,12.5 Z"/>
 <path style="fill:#4aafe8" d="M 13.863,2.5251 C 12.753,1.8469 11.371,1.8259 10.244,2.4621 L 10.137,2.5277 C 9.0585,3.1864 9,4.3846 9,5.6571 V 10 C 9,10 10.423,9 12,9 13.634,9 15,10 15,10 L 19.263,12.688 C 20.298,13.341 20.958,13.954 20.998,15.181 L 21,15.062 V 8.9361 C 21,7.6631 20.341,6.4831 19.263,5.8246 Z"/>
 <path style="opacity:0.2;fill:#ffffff" d="M 12.061 2 C 11.435 1.9895 10.808 2.1448 10.244 2.4629 L 4.7344 5.8242 C 3.6594 6.4842 3 7.6655 3 8.9355 L 3 9.4355 C 3 8.1655 3.6594 6.9842 4.7344 6.3242 L 10.244 2.9629 C 10.808 2.6448 11.435 2.4895 12.061 2.5 C 12.686 2.5105 13.308 2.6863 13.863 3.0254 L 19.264 6.3242 C 20.342 6.9827 21 8.1625 21 9.4355 L 21 8.9355 C 21 7.6625 20.342 6.4827 19.264 5.8242 L 13.863 2.5254 C 13.308 2.1863 12.686 2.0105 12.061 2 z M 9 11.82 L 9 12.32 C 9 13.595 9.5594 14.715 10.635 15.375 L 11.684 16.188 L 12.047 15.969 L 10.635 14.875 C 9.5594 14.215 9 13.095 9 11.82 z"/>
 <path style="opacity:0.2" d="M 15.5 10.314 L 15.5 10.814 L 19.264 13.188 C 20.226 13.794 20.862 14.368 20.979 15.432 C 20.987 15.342 20.993 15.254 20.996 15.164 C 20.95 13.949 20.294 13.337 19.264 12.688 L 15.5 10.314 z"/>
</svg>
